X: 169
T: Brickyard Joe
B: canberra pickers and fiddlers
B: old time tunes update
B: tunes
M:C|
L:1/8
R: Reel
Q: 1/4=100
K:G
V:1 
DEGA BGBG|ABGA BGBG|DEGA BGBG| BAGB AGEG|
DEGA BGBG|ABGA BGBc|d2 ef gedc|1BGAF G2G2:|2BGAF G2||
|:ef|gdef gfga|gedc ABde|fdef gfga|1gedB G2[G2B2]:|2 gedB AGEG||
% abcbook-tune_id 67a7d9ecaedbd876b89f0050
% abcbook-tune_composer_id 
% abcbook-link-0 https://www.youtube.com/watch?v=_HTTPoolmPA
% abcbook-link-title-0 Brick Yard Joe
% abcbook-boost 0
% abcbook-difficulty 0
% abcbook-tags old time tunes
% abcbook-tablature 
% abcbook-transpose 
% abcbook-tuning GDAD
% abcbook-lastupdated 1739278024019
% abcbook-src-url 
% abcbook-soundfonts 
% abcbook-repeats 1


